svgs/thin/briefcase.svg

<svg xmlns="http://www.w3.org/2000/svg" viewBox="0 0 512 512"><!-- Font Awesome Pro 6.0.0-alpha2 by @fontawesome - https://fontawesome.com License - https://fontawesome.com/license (Commercial License) --><path d="M464 96H384V40C384 17.938 366.062 0 344 0H168C145.938 0 128 17.938 128 40V96H48C21.492 96 0 117.49 0 144V256V272V432C0 458.51 21.492 480 48 480H464C490.508 480 512 458.51 512 432V272V256V144C512 117.49 490.508 96 464 96ZM144 40C144 26.781 154.781 16 168 16H344C357.219 16 368 26.781 368 40V96H144V40ZM496 432C496 449.645 481.645 464 464 464H48C30.355 464 16 449.645 16 432V272H176V328C176 341.219 186.781 352 200 352H312C325.219 352 336 341.219 336 328V272H496V432ZM320 272V328C320 332.406 316.406 336 312 336H200C195.594 336 192 332.406 192 328V272H320ZM16 256V144C16 126.355 30.355 112 48 112H464C481.645 112 496 126.355 496 144V256H16Z"/></svg>

<svg xmlns="http://www.w3.org/2000/svg" viewBox="0 0 512 512"><!--! Font Awesome Pro 6.0.0-alpha3 by @fontawesome - https://fontawesome.com License - https://fontawesome.com/license (Commercial License) --><path d="M464 96H384V40C384 17.94 366.1 0 344 0h-176C145.9 0 128 17.94 128 40V96H48C21.49 96 0 117.5 0 144v288C0 458.5 21.49 480 48 480h416c26.51 0 48-21.49 48-48v-288C512 117.5 490.5 96 464 96zM144 40c0-13.22 10.78-24 24-24h176c13.22 0 24 10.78 24 24V96h-224V40zM496 432c0 17.64-14.36 32-32 32h-416c-17.64 0-32-14.36-32-32v-160h160v56C176 341.2 186.8 352 200 352h112c13.22 0 24-10.78 24-24V272h160V432zM320 272v56c0 4.406-3.594 8-8 8h-112C195.6 336 192 332.4 192 328V272H320zM16 256V144c0-17.64 14.36-32 32-32h416c17.64 0 32 14.36 32 32V256H16z"/></svg>
